X: 41447
T: Two Guns
R: jig
M: 6/8
K: Dmajor
|:dAd ecA|fdf geg|aba fed|efe cBA|
dAd ecA|fdf geg|aba fec|d3d2c:|
|:BFB dBd|fgf dBF|BFB dBd|fgf e3|
BFB dBd|fgf dBF|dBd cAc|B3 B2c:|B3 B3||

